icons/svgs/key-solid.svg

<svg width="24" height="24" viewBox="0 0 24 24" fill="none" xmlns="http://www.w3.org/2000/svg">
<path d="M15.125 15.75C14.3828 15.75 13.6797 15.6719 13.0156 15.4375L11.7266 16.7266C11.5312 16.9219 11.2969 17 11.0625 17H9.5V18.5625C9.5 19.1094 9.07031 19.5 8.5625 19.5H7V21.0625C7 21.6094 6.57031 22 6.0625 22H2.9375C2.39062 22 2 21.6094 2 21.0625V17.9375C2 17.7031 2.07812 17.4688 2.27344 17.2734L8.5625 10.9844C8.32812 10.3203 8.25 9.61719 8.25 8.875C8.25 5.08594 11.2969 2 15.125 2C18.9141 2 22 5.08594 22 8.875C22 12.7031 18.9141 15.75 15.125 15.75ZM16.6875 5.75C16.1016 5.75 15.5938 6.0625 15.3203 6.53125C15.0469 7.03906 15.0469 7.625 15.3203 8.09375C15.5938 8.60156 16.1016 8.875 16.6875 8.875C17.2344 8.875 17.7422 8.60156 18.0156 8.09375C18.2891 7.625 18.2891 7.03906 18.0156 6.53125C17.7422 6.0625 17.2344 5.75 16.6875 5.75Z" fill="black"/>
</svg>

<svg xmlns="http://www.w3.org/2000/svg" width="24" height="24" fill="currentColor" class="icon-key-solid" viewBox="0 0 24 24">
  <mask id="a" width="20" height="20" x="2" y="2" maskUnits="userSpaceOnUse" style="mask-type:alpha">
    <path d="M15.125 15.75c-.742 0-1.445-.078-2.11-.312l-1.288 1.289a.92.92 0 0 1-.665.273H9.5v1.563c0 .546-.43.937-.937.937H7v1.563c0 .546-.43.937-.937.937H2.938C2.39 22 2 21.61 2 21.063v-3.125c0-.235.078-.47.273-.665l6.29-6.289c-.235-.664-.313-1.367-.313-2.109A6.86 6.86 0 0 1 15.125 2C18.915 2 22 5.086 22 8.875a6.86 6.86 0 0 1-6.875 6.875m1.563-10c-.586 0-1.094.313-1.368.781-.273.508-.273 1.094 0 1.563.274.508.782.781 1.367.781.547 0 1.055-.273 1.329-.781.273-.469.273-1.055 0-1.563a1.56 1.56 0 0 0-1.328-.781"/>
  </mask>
  <g mask="url(#a)">
    <path d="M0 0h24v24H0z"/>
  </g>
</svg>
